Adwaita++/apps/scalable/uget-icon.svg

<svg height="128" width="128" xmlns="http://www.w3.org/2000/svg">
  <g stroke-width=".535714">
    <path d="m54.892357 12.8986c-13.527919 0-24.418629 10.890709-24.418629 24.418629v44.920102h-8.717152l-.0016-39.186007h-17.6785746l-.07638 43.553593c-.01318 7.515502 6.0503996 13.565903 13.5659066 13.565903h14.185915c.09167 0 .182212-.006.273439-.007 3.46538 9.25827 12.370229 15.817 22.867024 15.817h39.152473c21.815821.46911 29.955221-7.67029 29.955221-24.05974v-39.417471h-32.558181v15.109041h16.279091l-32.558174 35.27135-29.84499-35.27135h14.95429v-46.124076h31.169783v21.705448h32.558181v-30.295422z" fill="#272727" opacity=".6"/>
    <path d="m54.892357 8.8985999c-13.527919 0-24.418629 10.8907091-24.418629 24.4186291v44.920102h-8.717152l-.0016-39.186007h-17.6785746l-.07638 43.553593c-.01318 7.515502 6.0503996 13.565903 13.5659066 13.565903h14.185915c.09167 0 .182212-.006.273439-.007 3.46538 9.25827 12.370229 15.817 22.867024 15.817h39.152473c21.815821.46911 29.955221-7.67029 29.955221-24.05974v-39.417471h-32.558181v15.109041h16.279091l-32.558174 35.27135-29.84499-35.27135h14.95429v-46.124076h31.169783v21.705448h32.558181v-30.2954221z" fill="#019733"/>
  </g>
</svg>

<?xml version="1.0" encoding="UTF-8" standalone="no"?>
<svg
   xmlns:dc="http://purl.org/dc/elements/1.1/"
   xmlns:cc="http://creativecommons.org/ns#"
   xmlns:rdf="http://www.w3.org/1999/02/22-rdf-syntax-ns#"
   xmlns:svg="http://www.w3.org/2000/svg"
   xmlns="http://www.w3.org/2000/svg"
   xmlns:xlink="http://www.w3.org/1999/xlink"
   xmlns:sodipodi="http://sodipodi.sourceforge.net/DTD/sodipodi-0.dtd"
   xmlns:inkscape="http://www.inkscape.org/namespaces/inkscape"
   width="128"
   height="128"
   version="1.0"
   id="svg50"
   sodipodi:docname="uget-icon.svg"
   inkscape:version="0.92.3 (2405546, 2018-03-11)">
  <metadata
     id="metadata54">
    <rdf:RDF>
      <cc:Work
         rdf:about="">
        <dc:format>image/svg+xml</dc:format>
        <dc:type
           rdf:resource="http://purl.org/dc/dcmitype/StillImage" />
        <dc:title></dc:title>
      </cc:Work>
    </rdf:RDF>
  </metadata>
  <sodipodi:namedview
     pagecolor="#ffffff"
     bordercolor="#666666"
     borderopacity="1"
     objecttolerance="10"
     gridtolerance="10"
     guidetolerance="10"
     inkscape:pageopacity="0"
     inkscape:pageshadow="2"
     inkscape:window-width="806"
     inkscape:window-height="480"
     id="namedview52"
     showgrid="false"
     inkscape:zoom="6.5234375"
     inkscape:cx="64"
     inkscape:cy="64"
     inkscape:window-x="531"
     inkscape:window-y="302"
     inkscape:window-maximized="0"
     inkscape:current-layer="svg50" />
  <defs
     id="defs33">
    <linearGradient
       id="ButtonShadow"
       x1="45.448002"
       x2="45.448002"
       y1="92.540001"
       y2="7.0159998"
       gradientTransform="scale(1.0059,0.99417)"
       gradientUnits="userSpaceOnUse">
      <stop
         id="stop3750"
         offset="0" />
      <stop
         id="stop3752"
         offset="1"
         style="stop-opacity:.58824" />
    </linearGradient>
    <linearGradient
       id="linearGradient3737">
      <stop
         id="stop3739"
         offset="0"
         style="stop-color:#fff" />
      <stop
         id="stop3741"
         offset="1"
         style="stop-color:#fff;stop-opacity:0" />
    </linearGradient>
    <filter
       id="filter3174">
      <feGaussianBlur
         id="feGaussianBlur3176"
         stdDeviation="1.71" />
    </filter>
    <linearGradient
       id="linearGradient3188"
       x1="36.356998"
       x2="36.356998"
       y1="6"
       y2="63.893002"
       gradientUnits="userSpaceOnUse"
       xlink:href="#linearGradient3737" />
    <filter
       id="filter3794"
       width="1.3839999"
       height="1.3839999"
       x="-0.19"
       y="-0.19">
      <feGaussianBlur
         id="feGaussianBlur3796"
         stdDeviation="5.28" />
    </filter>
    <linearGradient
       id="linearGradient3613"
       x1="48"
       x2="48"
       y1="20.221001"
       y2="138.66"
       gradientUnits="userSpaceOnUse"
       xlink:href="#linearGradient3737" />
    <radialGradient
       id="radialGradient3619"
       cx="48"
       cy="90.171997"
       r="42"
       gradientTransform="matrix(1.1573,0,0,0.99591,-7.551,0.19713)"
       gradientUnits="userSpaceOnUse"
       xlink:href="#linearGradient3737" />
    <clipPath
       id="clipPath3613">
      <rect
         width="84"
         height="84"
         x="6"
         y="6"
         rx="6"
         ry="6"
         style="fill:#ffffff"
         id="rect15" />
    </clipPath>
    <linearGradient
       id="linearGradient3617"
       x1="48"
       x2="48"
       y1="90"
       y2="5.9879999"
       gradientUnits="userSpaceOnUse">
      <stop
         id="stop3702"
         offset="0"
         style="stop-color:#50a925" />
      <stop
         id="stop3704"
         offset="1"
         style="stop-color:#88cd5a" />
    </linearGradient>
    <linearGradient
       id="ButtonShadow-0"
       x1="45.448002"
       x2="45.448002"
       y1="92.540001"
       y2="7.0159998"
       gradientTransform="matrix(1.0059,0,0,0.99417,100,0)"
       gradientUnits="userSpaceOnUse">
      <stop
         id="stop3750-8"
         offset="0" />
      <stop
         id="stop3752-5"
         offset="1"
         style="stop-opacity:.58824" />
    </linearGradient>
    <linearGradient
       id="linearGradient3780"
       x1="32.250999"
       x2="32.250999"
       y1="6.132"
       y2="90.238998"
       gradientTransform="matrix(1.0238,0,0,1.0119,-1.1429,-98.071)"
       gradientUnits="userSpaceOnUse"
       xlink:href="#ButtonShadow-0" />
    <linearGradient
       id="linearGradient3721"
       x1="32.250999"
       x2="32.250999"
       y1="6.132"
       y2="90.238998"
       gradientTransform="translate(0,-97)"
       gradientUnits="userSpaceOnUse"
       xlink:href="#ButtonShadow-0" />
    <linearGradient
       id="linearGradient3899"
       x1="49.924"
       x2="51.076"
       y1="20"
       y2="72"
       gradientTransform="matrix(1.0059,0,0,0.99417,100,0)"
       gradientUnits="userSpaceOnUse">
      <stop
         id="stop3903"
         offset="0"
         style="stop-color:#1e6318" />
      <stop
         id="stop3905"
         offset="1"
         style="stop-color:#288521" />
    </linearGradient>
    <filter
       style="color-interpolation-filters:sRGB"
       id="filter1025"
       width="1.022"
       height="1.026"
       x="-0.0099999998"
       y="-0.0099999998">
      <feGaussianBlur
         id="feGaussianBlur1027"
         stdDeviation="1.061" />
    </filter>
    <filter
       style="color-interpolation-filters:sRGB"
       id="filter1039"
       width="1.089"
       height="1.104"
       x="-0.039999999"
       y="-0.050000001">
      <feGaussianBlur
         id="feGaussianBlur1041"
         stdDeviation="4.245" />
    </filter>
  </defs>
  <path
     inkscape:connector-curvature="0"
     id="path864"
     d="m 54.892357,12.8986 c -13.527919,0 -24.418629,10.890709 -24.418629,24.418629 v 44.920102 h -8.717152 l -0.0016,-39.186007 H 4.0764014 v 0 l -0.07638,43.553593 c -0.01318,7.515502 6.0503996,13.565903 13.5659066,13.565903 h 14.185915 c 0.09167,0 0.182212,-0.006 0.273439,-0.007 3.46538,9.25827 12.370229,15.817 22.867024,15.817 H 94.044779 C 115.8606,116.44993 124,108.31053 124,91.92108 V 52.503609 H 91.441819 V 67.61265 H 107.72091 L 75.162736,102.884 45.317746,67.61265 h 14.95429 V 21.488574 H 91.441819 V 43.194022 H 124 V 12.8986 Z"
     style="fill:#272727;fill-opacity:1;stroke-width:0.53571415;opacity:0.6" />
  <g
     id="layer2"
     transform="translate(0,32)"
     style="display:none">
    <rect
       width="86"
       height="85"
       x="5"
       y="7"
       rx="6"
       ry="6"
       style="opacity:0.9;fill:url(#ButtonShadow);filter:url(#filter3174)"
       id="rect41" />
  </g>
  <path
     style="fill:#019733;fill-opacity:1;stroke-width:0.53571415"
     d="m 54.892357,8.8985999 c -13.527919,0 -24.418629,10.8907091 -24.418629,24.4186291 v 44.920102 h -8.717152 l -0.0016,-39.186007 H 4.0764014 v 0 l -0.07638,43.553593 C 3.9868414,90.120419 10.050421,96.17082 17.565928,96.17082 h 14.185915 c 0.09167,0 0.182212,-0.006 0.273439,-0.007 3.46538,9.25827 12.370229,15.817 22.867024,15.817 H 94.044779 C 115.8606,112.44993 124,104.31053 124,87.92108 V 48.503609 H 91.441819 V 63.61265 H 107.72091 L 75.162736,98.884 45.317746,63.61265 h 14.95429 V 17.488574 H 91.441819 V 39.194022 H 124 V 8.8985999 Z"
     id="path44"
     inkscape:connector-curvature="0" />
</svg>
